common/icons/svgs/arrow_small.svg

<svg xmlns="http://www.w3.org/2000/svg" width="24" height="24" viewBox="0 0 24 24">
  <g fill="none" fill-rule="evenodd" transform="translate(-408 -402)">
    <rect width="504" height="450" fill="#FFF"/>
    <path fill="#010101" fill-rule="nonzero" d="M18.7910448,11.5058824 L13.5671642,6.21176471 C13.2885572,5.92941176 12.8706468,5.92941176 12.5920398,6.21176471 C12.3134328,6.49411765 12.3134328,6.91764706 12.5920398,7.2 L16.6318408,11.2941176 L5.69651741,11.2941176 C5.27860697,11.2941176 5,11.5764706 5,12 C5,12.4235294 5.27860697,12.7058824 5.69651741,12.7058824 L16.6318408,12.7058824 L12.5920398,16.8 C12.3134328,17.0823529 12.3134328,17.5058824 12.5920398,17.7882353 C12.7313433,17.9294118 12.9402985,18 13.079602,18 C13.2189055,18 13.4278607,17.9294118 13.5671642,17.7882353 L18.7910448,12.4941176 C19.0696517,12.2117647 19.0696517,11.7882353 18.7910448,11.5058824 Z" transform="translate(408 402)"/>
  </g>
</svg>

<svg viewBox='0 0 24 24'><path d='M18.8 11.5l-5.2-5.3c-.3-.3-.7-.3-1 0-.3.3-.3.7 0 1l4 4.1H5.7c-.4 0-.7.3-.7.7s.3.7.7.7h10.9l-4 4.1c-.3.3-.3.7 0 1 .1.1.3.2.5.2.1 0 .3-.1.5-.2l5.2-5.3c.3-.3.3-.7 0-1z'/></svg>
